package/converter/svg/duotone/cloud-snow.svg

<svg xmlns="http://www.w3.org/2000/svg" viewBox="0 0 512 512"><!-- Font Awesome Pro 6.0.0-alpha2 by @fontawesome - https://fontawesome.com License - https://fontawesome.com/license (Commercial License) --><defs><style>.fa-secondary{opacity:.4}</style></defs><path d="M104 392H88V376C88 362.75 77.25 352 64 352S40 362.75 40 376V392H24C10.75 392 0 402.75 0 416S10.75 440 24 440H40V456C40 469.25 50.75 480 64 480S88 469.25 88 456V440H104C117.25 440 128 429.25 128 416S117.25 392 104 392ZM488 392H472V376C472 362.75 461.25 352 448 352S424 362.75 424 376V392H408C394.75 392 384 402.75 384 416S394.75 440 408 440H424V456C424 469.25 434.75 480 448 480S472 469.25 472 456V440H488C501.25 440 512 429.25 512 416S501.25 392 488 392ZM296 424H280V408C280 394.75 269.25 384 256 384S232 394.75 232 408V424H216C202.75 424 192 434.75 192 448S202.75 472 216 472H232V488C232 501.25 242.75 512 256 512S280 501.25 280 488V472H296C309.25 472 320 461.25 320 448S309.25 424 296 424Z" class="fa-secondary"/><path d="M96 320H416C469 320 512 277 512 224S469 128 416 128C415.375 128 414.875 128.25 414.375 128.25C415.5 123 416 117.625 416 112C416 67.75 380.25 32 336 32C311.375 32 289.75 43.25 275 60.75C256.375 24.75 219.25 0 176 0C114.125 0 64 50.125 64 112C64 119.25 64.75 126.25 66.125 133.25C27.75 145.75 0 181.5 0 224C0 277 43 320 96 320Z" class="fa-primary"/></svg>

<svg xmlns="http://www.w3.org/2000/svg" viewBox="0 0 512 512"><!--! Font Awesome Pro 6.6.0 by @fontawesome - https://fontawesome.com License - https://fontawesome.com/license (Commercial License) Copyright 2024 Fonticons, Inc. --><defs><style>.fa-secondary{opacity:.4}</style></defs><path class="fa-secondary" d="M0 416c0 13.3 10.7 24 24 24l16 0 0 16c0 13.3 10.7 24 24 24s24-10.7 24-24l0-16 16 0c13.3 0 24-10.7 24-24s-10.7-24-24-24l-16 0 0-16c0-13.3-10.7-24-24-24s-24 10.7-24 24l0 16-16 0c-13.3 0-24 10.7-24 24zm192 32c0 13.3 10.7 24 24 24l16 0 0 16c0 13.3 10.7 24 24 24s24-10.7 24-24l0-16 16 0c13.3 0 24-10.7 24-24s-10.7-24-24-24l-16 0 0-16c0-13.3-10.7-24-24-24s-24 10.7-24 24l0 16-16 0c-13.3 0-24 10.7-24 24zm192-32c0 13.3 10.7 24 24 24l16 0 0 16c0 13.3 10.7 24 24 24s24-10.7 24-24l0-16 16 0c13.3 0 24-10.7 24-24s-10.7-24-24-24l-16 0 0-16c0-13.3-10.7-24-24-24s-24 10.7-24 24l0 16-16 0c-13.3 0-24 10.7-24 24z"/><path class="fa-primary" d="M0 224c0 53 43 96 96 96l320 0c53 0 96-43 96-96s-43-96-96-96c-.5 0-1.1 0-1.6 0c1.1-5.2 1.6-10.5 1.6-16c0-44.2-35.8-80-80-80c-24.3 0-46.1 10.9-60.8 28C256.5 24.3 219.1 0 176 0C114.1 0 64 50.1 64 112c0 7.1 .7 14.1 1.9 20.8C27.6 145.4 0 181.5 0 224z"/></svg>
